X:1
T:Rose in the Heather
C:Ask John
C:
S:John Winston
L:1/8
R:Jig
M:6/8
K:D
F3 EFE | DFA BAF | ABd ede | fdB AFD |
F3 EFE | DFA BAF | AdA GFE | FDD D3 :|
|: fdB ABd | faa afd | g3 fed | Bee efg |
fdB ABd | faa afa | baf afe | edd d3 :|

